outputs/icons/general/school_round.svg

<svg xmlns="http://www.w3.org/2000/svg" width="1200" height="1200" fill="none"><path fill="#000" d="M268.488 669.09c-8.33-4.545-18.488 1.48-18.488 10.97v171.52c0 4.575 2.498 8.785 6.512 10.975L594.01 1046.73a12.49 12.49 0 0 0 11.98 0l337.5-184.175c4.01-2.19 6.51-6.4 6.51-10.975V680.06c0-9.49-10.16-15.515-18.49-10.97L605.99 846.73a12.49 12.49 0 0 1-11.98 0zm337.497-515.825a12.5 12.5 0 0 0-11.97 0L70.118 439.027c-8.685 4.737-8.685 17.209 0 21.946l523.897 285.762a12.5 12.5 0 0 0 11.97 0L1050 504.5V800c0 27.615 22.385 50 50 50s50-22.385 50-50V457.421c0-4.575-2.5-8.784-6.515-10.975z"/></svg>

<svg width="1200" height="1200" viewBox="0 0 1200 1200" fill="none" xmlns="http://www.w3.org/2000/svg"><path d="M268.488 669.09C260.158 664.545 250 670.57 250 680.06V851.58C250 856.155 252.498 860.365 256.512 862.555L594.01 1046.73C597.745 1048.77 602.255 1048.77 605.99 1046.73L943.49 862.555C947.5 860.365 950 856.155 950 851.58V680.06C950 670.57 939.84 664.545 931.51 669.09L605.99 846.73C602.255 848.77 597.745 848.77 594.01 846.73L268.488 669.09ZM605.985 153.265C602.255 151.23 597.745 151.23 594.015 153.265L70.118 439.027C61.433 443.764 61.433 456.236 70.118 460.973L594.015 746.735C597.745 748.77 602.255 748.77 605.985 746.735L1050 504.5V800C1050 827.615 1072.385 850 1100 850C1127.615 850 1150 827.615 1150 800V457.421C1150 452.846 1147.5 448.637 1143.485 446.446L605.985 153.265Z" fill="black"/></svg>
